X:1     %Music
T:The Old Man of the Woods
B:Singing Together, Autumn 1970, BBC Publications
F:http://www.folkinfo.org/songs
M:3/4     %Meter
L:1/8     %
K:F
AF G2 c2 |AF G2 F2 |BB B2 B2 |cB A2 G2 |
w:Chop-ping trees and cut-ting branch-es In the wood there is an old man. 
BB B2 B2 |AG A2 c2 |AF G2 c2 |BF G2 F2 |]
w:In the wood there is an old man Chop-ping trees and cut-ting branch-es. 